FINK
CUT[WENN MAN BEIM WEIN SITZT]
REG[Europa, Mitteleuropa, Deutschland]
KEY[F0628  16  D 2/4]
MEL[  -1__-3_-4_  -5__-5_0_
    -5_-5_-6_-7_  1__-1_0_
    4__3_2_  3__2_1_
    -7_-7_-6_-7_  1__-1_0_
    -7_.-7-7_-7_  -7_1_2__
    1_.11_-5_  1_2_3__
    4_.22_2_  3_1_1__
    2_.-7b-7b_-7b_  1_-6_-6__
    -5_.-5-5_-5_  -6__-6__
    -7_-7_1_2_  3__1_0_
    4__2_2_  3__1_1_
    2_2_-7_-7_  1__-1_0_ //] >>
FCT[Soldaten -, Trink - Lied]
